img/logos/netflix.svg

<?xml version="1.0" encoding="UTF-8" standalone="no"?>
<svg width="250px" height="68px" viewBox="0 0 250 68" version="1.1" xmlns="http://www.w3.org/2000/svg" xmlns:xlink="http://www.w3.org/1999/xlink">
    <!-- Generator: Sketch 48.1 (47250) - http://www.bohemiancoding.com/sketch -->
    <title>netflix-logo</title>
    <desc>Created with Sketch.</desc>
    <defs></defs>
    <g id="Page-1" stroke="none" stroke-width="1" fill="none" fill-rule="evenodd">
        <g id="netflix-logo" fill="#7C7C7C" fill-rule="nonzero">
            <path d="M34.3757324,63.2089844 C30.6149902,63.8693848 26.7880859,64.0673828 22.8293457,64.5947266 L10.7546387,29.2294922 L10.7546387,66.1125488 C6.99389648,66.5083008 3.56298828,67.0361328 0,67.5639648 L0,0 L10.0292969,0 L23.7529297,38.3352051 L23.7529297,0 L34.3757324,0 L34.3757324,63.2089844 Z M55.159668,24.7426758 C59.2507324,24.7426758 65.5187988,24.5446777 69.279541,24.5446777 L69.279541,35.1013184 C64.5947266,35.1013184 59.1186523,35.1013184 55.159668,35.2993164 L55.159668,51.0029297 C61.3620605,50.6071777 67.564209,50.0788574 73.8320312,49.8808594 L73.8320312,60.0412598 L44.6025391,62.3510742 L44.6025391,2.84217094e-14 L73.8320312,2.84217094e-14 L73.8320312,10.5568848 L55.159668,10.5568848 L55.159668,24.7426758 Z M113.090332,10.5571289 L102.137695,10.5571289 L102.137695,59.1186523 C98.574707,59.1186523 95.0117187,59.1186523 91.5812988,59.2502441 L91.5812988,10.5571289 L80.6286621,10.5571289 L80.6286621,-3.55271368e-14 L113.09082,-3.55271368e-14 L113.090332,10.5571289 Z M130.245117,24.0170898 L144.695068,24.0170898 L144.695068,34.5737305 L130.245117,34.5737305 L130.245117,58.5249023 L119.885498,58.5249023 L119.885498,2.84217094e-14 L149.379639,2.84217094e-14 L149.379639,10.5568848 L130.245117,10.5568848 L130.245117,24.0170898 Z M166.534424,49.2873535 C172.538818,49.4189453 178.608643,49.8815918 184.481201,50.2109375 L184.481201,60.6359863 C175.046143,60.041748 165.61084,59.4487305 155.977783,59.2502441 L155.977783,0 L166.534424,0 L166.534424,49.2873535 Z M193.388428,61.3618164 C196.753418,61.5600586 200.316406,61.7580566 203.747314,62.1533203 L203.747314,-2.84217094e-14 L193.388428,-2.84217094e-14 L193.388428,61.3618164 Z M250,0 L236.605713,32.1325684 L250,67.5639648 C246.040771,67.0361328 242.082031,66.3103027 238.123047,65.6503906 L230.535645,46.1206055 L222.81665,64.0673828 C218.989014,63.4069824 215.294189,63.2089844 211.468018,62.6811523 L225.059814,31.7363281 L212.787109,6.9388939e-15 L224.135254,6.9388939e-15 L231.063232,17.7487793 L238.453369,6.9388939e-15 L250,0 Z" id="Shape"></path>
        </g>
    </g>
</svg>

<svg width="250" height="68" xmlns="http://www.w3.org/2000/svg"><path d="M34.376 63.209c-3.76.66-7.588.858-11.546 1.386L10.755 29.23v36.883c-3.76.395-7.192.923-10.755 1.451V0h10.029l13.724 38.335V0h10.623v63.21zM55.16 24.743c4.091 0 10.359-.198 14.12-.198v10.557c-4.685 0-10.161 0-14.12.198v15.704c6.202-.396 12.405-.924 18.672-1.122v10.16l-29.229 2.31V0h29.229v10.557H55.16v14.186zm57.931-14.186h-10.953v48.562c-3.563 0-7.126 0-10.556.132V10.558H80.629V0h32.462v10.557zm17.155 13.46h14.45v10.557h-14.45v23.951h-10.36V0h29.494v10.557h-19.135v13.46zm36.289 25.27c6.004.132 12.074.594 17.947.924v10.425c-9.435-.595-18.87-1.188-28.503-1.386V0h10.557v49.287zm26.854 12.074c3.365.198 6.928.396 10.359.792V0h-10.359v61.362zM250.001-.001l-13.394 32.133 13.394 35.431c-3.96-.528-7.918-1.254-11.877-1.914l-7.587-19.53-7.72 17.947c-3.827-.66-7.522-.858-11.348-1.386l13.592-30.945L212.788 0h11.348l6.928 17.75 7.39-17.75H250z" fill="#7C7C7C" fill-rule="nonzero"/></svg>
